svg/parallel_tasks.svg

<svg xmlns="http://www.w3.org/2000/svg" viewBox="0 0 32 32"><path d="M12 5v8h3v2H5v4H2v8h8v-8H7v-2h8v2h-3v8h8v-8h-3v-2h8v2h-3v8h8v-8h-3v-4H17v-2h3V5h-8zm2 2h4v4h-4V7zM4 21h4v4H4v-4zm10 0h4v4h-4v-4zm10 0h4v4h-4v-4z"/></svg>

<svg xmlns="http://www.w3.org/2000/svg" viewBox="0 0 32 32" enable-background="new 0 0 32 32"><path d="M 12 5 L 12 6 L 12 12 L 12 13 L 13 13 L 15 13 L 15 15 L 6 15 L 5 15 L 5 16 L 5 19 L 3 19 L 2 19 L 2 20 L 2 26 L 2 27 L 3 27 L 9 27 L 10 27 L 10 26 L 10 20 L 10 19 L 9 19 L 7 19 L 7 17 L 15 17 L 15 19 L 13 19 L 12 19 L 12 20 L 12 26 L 12 27 L 13 27 L 19 27 L 20 27 L 20 26 L 20 20 L 20 19 L 19 19 L 17 19 L 17 17 L 25 17 L 25 19 L 23 19 L 22 19 L 22 20 L 22 26 L 22 27 L 23 27 L 29 27 L 30 27 L 30 26 L 30 20 L 30 19 L 29 19 L 27 19 L 27 16 L 27 15 L 26 15 L 17 15 L 17 13 L 19 13 L 20 13 L 20 12 L 20 6 L 20 5 L 19 5 L 13 5 L 12 5 z M 14 7 L 18 7 L 18 11 L 14 11 L 14 7 z M 4 21 L 8 21 L 8 25 L 4 25 L 4 21 z M 14 21 L 18 21 L 18 25 L 14 25 L 14 21 z M 24 21 L 28 21 L 28 25 L 24 25 L 24 21 z"/></svg>
